!!!COM: Mozart, Wolfgang Amadeus
!!!CDT: 1756/01/27/-1791/12/05/
!!!CNT: German
!!!OTL: Piano Sonata No. 12 in F major
!!!SCT1: K<sup>1</sup> 332
!!!SCT2: K<sup>6</sup> 300k
!!!OMV: Mvmt. 1
!!!OMD: Allegro
!!!ODT: ~1783///
**kern	**kern	**dynam
*staff2	*staff1	*staff1
*>[A,A,B,B]	*>[A,A,B,B]	*>[A,A,B,B]
*>norep[A,B]	*>norep[A,B]	*>norep[A,B]
*>A	*>A	*>A
*clefF4	*clefG2	*clefG2
*k[b-]	*k[b-]	*k[b-]
*F:	*F:	*F:
*M3/4	*M3/4	*M3/4
*MM144	*MM144	*MM144
=1-	=1-	=1-
(8F\L	(2f/	p
8A\	.	.
8c\	.	.
8A\	.	.
8c\	4a/	.
8A\J	.	.
=2	=2	=2
8F\L	2cc\	.
8c\	.	.
8e-\	.	.
8c\	.	.
8e-\	4a/	.
8c\J)	.	.
=3	=3	=3
(8F\L	2b-\	.
8B-\	.	.
8d\	.	.
8B-\	.	.
8d\	4gg\	.
8B-\J	.	.
=4	=4	=4
8F\L	8ff\L	.
8G\	8ee\J)	.
8B-\	4ee\	.
8G\	.	.
8B-\	4r	.
8G\J)	.	.
=5	=5	=5
4F\ 4A\	(4ff\	.
4r	4a/	.
4r	4dd\	.
=6	=6	=6
2.r	4g/	.
.	4.cc\	.
.	8a/)	.
=7	=7	=7
(4F\	(2.f/	.
4AA/	.	.
4D\	.	.
=8	=8	=8
*	*^	*
4GG/	(2.g/)	4f\	.
4.C/	.	8e\L	.
.	.	8d\J	.
.	.	4e\)	.
8AA/)	.	.	.
=9	=9	=9	=9
(4FF/	(4a/	[2.f\	.
4D\	4b-/	.	.
4BB-/)	4dd/)	.	.
=10	=10	=10	=10
4AA/	(8dd/L	4f\]	.
.	8cc/	.	.
4r	8b-/	4r	.
.	8a/	.	.
4D\	8g/	4r	.
.	8f/J	.	.
*	*v	*v	*
=11	=11	=11
4BB-/	4g/	.
4r	4b-\)	.
4C/	4B-/ 4e/	.
=12	=12	=12
4FF/	4A/ 4f/	.
4r	4r	.
*clefG2	*	*
(8.a/ 8.cc/L	(8.ccc\L	p
16g/ 16b-/Jk	16bb-\Jk	.
=13	=13	=13
4f/) 4a/	4aa\)	.
4f/ 4a/	4aa\	.
(8.f/ 8.a/L	(8.aa\L	.
16c/ 16g/Jk	16gg\Jk	.
=14	=14	=14
4A/) 4f/	4ff\)	.
4A/ 4f/	4ff\	.
(4A/ 4f/	(4ff\	.
=15	=15	=15
4c/) 4g/	4ee\ 4gg\)	.
4c'/ 4g'/	4ee'\ 4gg'\	.
4c'/ 4g'/	4ee'\ 4gg'\	.
=16	=16	=16
(4c/ 4g/	4ee\ (4gg\	.
4f/) 4a/	4ff\ 4aa\)	.
(8.a/ 8.cc/L	(16ccc\LL	.
.	16ddd\	.
.	16ccc\	.
16g/ 16b-/Jk	16bb-\JJ	.
=17	=17	=17
4f/) 4a/	4aa\)	.
4f/ 4a/	4aa\	.
(8.f/ 8.a/L	(16aa\LL	.
.	16bb-\	.
.	16aa\	.
16c/ 16g/Jk	16gg\JJ	.
=18	=18	=18
4A/) 4f/	4ff\)	.
4A/ 4f/	4ff\	.
4A/ 4f/	4ff\	.
=19	=19	=19
4c/ 4g/	(4gg\	.
4r	4bb-\)	.
(4c/ 4g/	4b-\ (4ee\	.
=20	=20	=20
4f/)	4a\ 4ff\)	.
4r	4r	.
(4c/ 4e/ 4b-/	(4ccc\	.
=21	=21	=21
4f/) 4a/	4ff\)	.
4r	4r	.
*clefF4	*	*
4C\ 4E\ (4B-\	(4cc\	.
=22	=22	=22
4F\ 4A\)	4f/)	.
4r	4r	.
(4CC#/ 4C#/	(4c#/	f
=23	=23	=23
8DD/) 8D/	4.d/)	.
(8F\L	.	.
8A\	.	.
8F\	16f/LL	.
.	(16a/JJ	.
8A\	8dd\L	.
8F\J	16a\L	.
.	16dd\JJ	.
=24	=24	=24
8D\L	8ff\L	.
8F\	16dd\L	.
.	16ff\JJ	.
8A\	8aa'\L)	.
8F\	(8aa\	.
8A\	8ff\	.
8F\J)	8dd\J)	.
=25	=25	=25
.	32cc#Q/LLL	.
.	32eeQ/	.
.	32ggQ/JJJ	.
4EE/ 4E/	4.bb-\	.
4E\ 4G\ 4B-\ 4c#\	.	.
.	(16aa\LL	.
.	16gg\JJ	.
4r	16ff\LL	.
.	16ee\	.
.	16dd\	.
.	16cc#\JJ	.
=26	=26	=26
4EE/ 4E/	4.bb-\)	.
4E\ 4G\ 4B-\ 4c#\	.	.
.	(16aa\LL	.
.	16gg\JJ	.
4r	16ff\LL	.
.	16ee\	.
.	16dd\	.
.	16cc#\JJ)	.
=27	=27	=27
(8F\L	4.dd\	.
8A\	.	.
8d\	.	.
8A\	16f/LL	.
.	(16a/JJ	.
8d\	8dd\L	.
8A\J	16a\L	.
.	16dd\JJ	.
=28	=28	=28
8F\L	8ff\L	.
8A\	16dd\L	.
.	16ff\JJ	.
8d\	8aa'\L)	.
8A\	(8aa\	.
8d\	8ff\	.
8A\J)	8dd\J)	.
=29	=29	=29
4DD/ 4D/	4.bn\ 4.dd\ 4.ff\ 4.aa-\	.
4D\ 4F\ 4A-\ 4Bn\	.	.
.	(16gg\LL	.
.	16ff\JJ	.
4r	16ee-\LL	.
.	16dd\	.
.	16cc\	.
.	16b\JJ	.
=30	=30	=30
4DD/ 4D/	4.aa-\)	.
4D\ 4F\ 4A-\ 4Bn\	.	.
.	(16gg\LL	.
.	16ff\JJ	.
4r	16ee-\LL	.
.	16dd\	.
.	16cc\	.
.	16bn\JJ)	.
=31	=31	=31
(8E-\L	([4cc\	.
8G\	.	.
8c\	16cc\LL]	.
.	16g\	.
8G\	16cc\	.
.	16g\JJ	.
8c\	16ee-\LL	.
.	16cc\	.
8G\J	16ee-\	.
.	16cc\JJ	.
=32	=32	=32
8E-\L	16gg\LL	.
.	16ee-\	.
8G\	16gg\	.
.	16ee-\JJ	.
8c\	4ccc\)	.
8G\	.	.
8c\	4r	.
8G\J)	.	.
=33	=33	=33
(8C\L	([4cc\	.
8E-\	.	.
8A-\	16cc\LL]	.
.	16a-\	.
8E-\	16cc\	.
.	16a-\JJ	.
8A-\	16ee-\LL	.
.	16cc\	.
8E-\J	16ee-\	.
.	16cc\JJ	.
=34	=34	=34
8C\L	16aa-\LL	.
.	16ee-\	.
8E-\	16aa-\	.
.	16ee-\JJ	.
8A-\	4ccc\)	.
8E-\	.	.
8A-\	4r	.
8E-\J)	.	.
=35	=35	=35
(8AA-/L	([4cc\	.
8C/	.	.
8E-/	16cc/LL]	.
.	16f#/	.
8C/	16cc/	.
.	16f#/JJ	.
8E-/	16ee-\LL	.
.	16cc\	.
8C/J	16ee-\	.
.	16cc\JJ	.
=36	=36	=36
8AA-/L	16ff#\LL	.
.	16ee-\	.
8C/	16ff#\	.
.	16ee-\JJ	.
8E-/	4ccc\	.
8C/	.	.
8E-/	4ff#\)	.
8C/J)	.	.
=37	=37	=37
.	32gQ/LLL	.
.	32bnQ/	.
.	32ddQ/JJJ	.
(8GG/L	(2gg\	.
8BBn/	.	.
8D/	.	.
8G/	.	.
8C/	16ffn\LL	.
.	16ee-\	.
8E-/J	16dd\	.
.	16cc\JJ	.
=38	=38	=38
8GG/L	2gg\	.
8BBn/	.	.
8D/	.	.
8G/	.	.
8C/	16ff\LL	.
.	16ee-\	.
8E-/J)	16dd\	.
.	16cc\JJ	.
=39	=39	=39
4.GG/ 4.G/	4.gg\)	.
(16A-\LL	(16aa-\LL	.
16G\JJ	16gg\JJ	.
16F\LL	16ff\LL	.
16E-\	16ee-\	.
16D\	16dd\	.
16C\JJ	16cc\JJ	.
=40	=40	=40
4G'\)	4gg'\)	.
4GG'/	4g'/	.
4r	4r	.
=41	=41	=41
32CQ/LLL	(32gQ/	.
32GQ/JJJ	.	.
4c\	8een\)	p
.	8r	.
4r	8ee\	.
.	8r	.
4r	8ee\	.
.	8r	.
=42	=42	=42
32GQ/LLL	16bnQ/	.
32dQ/JJJ	.	.
4f\	(4.gg\	.
4r	.	.
.	8ff\	.
4r	4dd\	.
=43	=43	=43
*	*^	*
4C/	(8dd/L)	4e\	.
.	8cc/J	.	.
4E\	2r	(4.g\ (4.cc\)	.
4G\	.	.	.
.	.	8bn\) 8dd\)	.
=44	=44	=44	=44
4c\	(2dd/	(2bn\	.
4C/	.	.	.
4r	4ee/)	4cc\)	.
*	*v	*v	*
=45	=45	=45
(4A\	(4.ff\	.
4c\ 4f\)	.	.
.	32ggQ/LLL	.
.	32ffQ/	.
.	32eeQ/JJJ	.
.	8ff\L	.
4r	8gg\	.
.	8aa\J)	.
=46	=46	=46
(4Bn\	(8aa\L	.
.	8gg\	.
4d\ 4g\)	8ff#\	.
.	8gg\	.
4r	8ffn\	.
.	8dd\J	.
=47	=47	=47
4c\	8dd#\L	.
.	8ee\	.
4A\ (4c\	8ff\	.
.	8ee\	.
4F\ 4dn\)	8gg\	.
.	8ff\J	.
=48	=48	=48
4G\ 4Bn\	8ee\L	.
.	8ddn\	.
4r	8cc\	.
.	8bn\	.
4r	8a\	.
.	8g\J)	.
*clefG2	*	*
=49	=49	=49
(12c/L	(8dd#\L	.
12e/	.	.
.	8ee\)	.
12g/J	.	.
12c/L	(8dd#\	.
12e/	.	.
.	8ee\)	.
12g/J	.	.
12c/L	(8dd#\	.
12e/	.	.
.	8ee\J)	.
12g/J	.	.
=50	=50	=50
12Bn/L	(8ff#\L	.
12d/	.	.
.	8gg\)	.
12g/J	.	.
12B/L	(8ff#\	.
12d/	.	.
.	8gg\)	.
12g/J	.	.
12B/L	(8ffn\	.
12f/	.	.
.	8ddn\J)	.
12g/J	.	.
=51	=51	=51
*	*^	*
4c/) 4e/	4r	(8dd\L	.
.	.	8cc\J)	.
*clefF4	*	*	*
4E\	(8dd/L	4g\	.
.	8cc/J	.	.
4G\	(8ee/L)	4bn\	.
.	8dd/J)	.	.
=52	=52	=52	=52
4c\	(4.dd/	(2bn\	.
4G\	.	.	.
.	8dd#/	.	.
4C/	4ee/)	4cc\)	.
*clefG2	*	*	*
*	*v	*v	*
=53	=53	=53
(8A/L	4.ff\	f
8c/	.	.
8f/	.	.
!!.	32ggQ/LLL	.
!!.	32ffQ/	.
!!.	32eeQ/JJJ	.
8c/	(8ff\L	.
8A/	8gg\	.
8c/J	8aa\J)	.
=54	=54	=54
8Bn/L	(8aa\L	.
8d/	8gg\	.
8g/	8ff#\	.
8d/	8gg\	.
8B/	8ffn\	.
8d/J)	8dd\J	.
=55	=55	=55
4c/	8dd#\L	.
.	8ee\	.
*clefF4	*	*
4F\ 4dn\	8gg\	.
.	8ff\	.
4G\ 4f\	8ddn\	.
.	8bn\J)	.
=56	=56	=56
4c\ 4e\	(8cc/L	.
.	8g/J)	p
4e\	8r	.
.	8g/	.
4c\	8r	.
.	8g/	.
=57	=57	=57
4d\	8f/ 8g/L	.
.	8f/ 8g/J	.
4Bn\	8r	.
.	8f/ 8g/	.
4G\	8r	.
.	8f/ 8g/	.
=58	=58	=58
4C/	8e-/ 8g/L	.
.	8e-/ 8g/J	.
4E-\	8r	.
.	8e-/ 8g/	.
4C/	8r	.
.	8e-/ 8g/	.
=59	=59	=59
4D\	8f/ 8g/L	.
.	8f/ 8g/J	.
4BBn/	8r	.
.	8f/ 8g/	.
4GG/	8r	.
.	8f/ 8g/	.
=60	=60	=60
4CC/ 4C/	8e-/ 8g/L	.
.	8e-/ 8g/J	.
4E-\	8r	.
.	8e-/ 8g/	.
4G\	8r	.
.	8e-/ 8g/	.
=61	=61	=61
4FF/ 4F/	8e-/ 8a-/L	.
.	8e-/ 8a-/J	.
4A-\	8r	.
.	8e-/ 8a-/	.
4c\	8r	.
.	8e-/ 8a-/	.
=62	=62	=62
4BBB-/ 4BB-/	8d/ 8a-/L	.
.	8d/ 8a-/J	.
4D\	8r	.
.	8d/ 8a-/	.
4F\	8r	.
.	8d/ 8a-/	.
=63	=63	=63
4EE-/ 4E-/	8d/ 8g/L	.
.	8d/ 8g/J	.
4G\	8r	.
.	8d/ 8g/	.
4B-\	8r	.
.	8d/ 8g/	.
=64	=64	=64
4AAA-/ 4AA-/	8c/ 8g/L	.
.	8c/ 8g/J	.
4A-\	8r	.
.	8c/ 8g/	.
4DD/ 4D/	8c/ 8f/L	.
.	8c/ 8f/J	.
=65	=65	=65
4d\	8r	.
.	8c/ 8f/	.
4GGG/ 4GG/	8Bn/ 8f/L	.
.	8B/ 8f/J	.
4G\	8r	.
.	8B/ 8f/	.
=66	=66	=66
(4A-\	8r	.
.	8c/ 8e-/	.
4G\	8r	.
.	8c/ 8e-/	.
4F#\	8r	.
.	8c/ 8e-/	.
=67	=67	=67
4G\)	8Bn/ 8d/L	.
.	(8e-/ 8g/	.
4r	8d/ 8f/	.
.	8c/ 8e-/	.
8r	8B/ 8d/	.
(8F#\	8c/) 8e-/J	.
=68	=68	=68
4G\)	8Bn/ 8d/L	.
.	(8e-/ 8g/	.
4r	8d/ 8f/	.
.	8c/ 8e-/	.
8r	8B/ 8d/	.
(8F#\	8c/ 8e-/J	.
=69	=69	=69
8G\L	8Bn/ 8d/L	.
8F#\	8c/ 8e-/	.
8G\	8B/ 8d/	.
8F#\	8c/ 8e-/	.
8G\	8B/ 8d/	.
8F#\J	8c/ 8e-/J	.
=70	=70	=70
4G\)	8Bn/) 8d/L	.
.	(8A#/ 8c#/	.
4r	8B/ 8d/	.
.	8c#/ 8en/	.
4r	8d/ 8fn/	.
.	8e/) 8g/J	.
=71	=71	=71
4Fn\	4f/ 4a/	.
4F\	4cn/ 4f/ 4a/	.
4F\	4c/ 4f/ 4a/	.
=72	=72	=72
*	*^	*
(2F\	2f/ (2a/	2.c\	.
4C/)	4e/ 4g/)	.	.
=73	=73	=73	=73
4GG/	(16g/LK	4Bn\ 4d\	.
.	8.f/J)	.	.
4GG/	4d/ 4f/	4B\	.
4GG/	4d/ 4f/	4B\	.
*	*v	*v	*
=74	=74	=74
(2GG/	(2Bn/ 2d/ (2f/	.
4AA/)	4c/) 4e/)	.
=75	=75	=75
4FF/	(8e/ 8g/L	.
.	8d/) 8f/J	.
4GG/	(4c/ 4e/	.
4GG/	4Bn/) 4d/	.
=76	=76	=76
4C/	8c/ 8e/	.
.	8cc'\L	.
4r	8dd'\	.
.	8ee'\	.
4r	8ff'\	.
.	8gg'\J	.
=77	=77	=77
4c\ 4f\	4aa\	.
4c\ 4f\	4aa\	.
4c\ 4f\	4aa\	.
=78	=78	=78
*^	*	*
(2f/	2.c\	(4.aa\	.
.	.	16bbn\LL	.
.	.	16aa\JJ	.
4e/	.	4gg\)	.
=79	=79	=79	=79
*	*	*^	*
4d/)	4G\	(16gg/LK	4bn\	.
.	.	8.ff/J	.	.
4d/	4G\	4ff/)	4b\	.
4d/	4G\	4ff/	4b\	.
=80	=80	=80	=80	=80
(2d/	(2G\	(2ff/	(2bn\	.
4c/)	4A\)	4ee/)	4cc\)	.
*v	*v	*	*	*
*	*v	*v	*
=81	=81	=81
(4F\	8ee\ (8gg\L	.
.	8dd\ 8ff\J)	.
4G\	4cc\ 4ee\	.
4F\)	4bn\ 4dd\	.
=82	=82	=82
8EE/ 8E/	8ee\ 8gg\L	.
8r	8ee\ 8gg\J	.
8G#\	8r	.
8r	8dd\ 8ff\	.
8A\	8r	.
8r	8cc\ 8ee\	.
=83	=83	=83
8F\	8r	.
8r	8f/ 8dd/	.
8Gn\	8r	.
8r	8e/ 8cc/	.
8F\	8r	.
8r	8d/ 8bn/	.
=84	=84	=84
4EE/ 4E/	16r	.
.	(16ee\LL	f
.	16gg\	.
.	16ee\JJ)	.
4GG#/ 4G#/	16r	.
.	(16dd\LL	.
.	16ff\	.
.	16dd\JJ)	.
4AA\ 4A\	16r	.
.	(16cc\LL	.
.	16ee\	.
.	16cc\JJ)	.
=85	=85	=85
4FF/ 4F/	16r	.
.	(16f/LL	.
.	16dd/	.
.	16f/JJ)	.
4GGn/ 4Gn/	16r	.
.	(16e/LL	.
.	16cc/	.
.	16e/JJ)	.
4GG/ 4G/	16r	.
.	(16d/LL	.
.	16bn/	.
.	16d/JJ)	.
=86	=86	=86
(16C\LL	4e/ 4g/ 4cc/	.
16E\	.	.
16G\	.	.
16c\JJ	.	.
16C\LL	4r	.
16E\	.	.
16G\	.	.
16c\JJ	.	.
16C\LL	(8.ee\L	.
16E\	.	.
16G\	.	.
16c\JJ	32dd\LL	.
.	32cc\JJJ	.
=87	=87	=87
16C\LL	2gg\)	.
16E\	.	.
16G\	.	.
16c\JJ	.	.
16C\LL	.	.
16E\	.	.
16G\	.	.
16c\JJ	.	.
16C\LL	(8.bbn\L	.
16F\	.	.
16G\	.	.
16c\JJ	32aa\LL	.
.	32gg\JJJ	.
=88	=88	=88
16C\LL	2ccc\)	.
16E\	.	.
16G\	.	.
16c\JJ	.	.
16C\LL	.	.
16E\	.	.
16G\	.	.
16c\JJ	.	.
16C\LL	(8.ee\L	.
16E\	.	.
16G\	.	.
16c\JJ	32dd\LL	.
.	32cc\JJJ	.
=89	=89	=89
16C\LL	4gg\)	.
16E\	.	.
16G\	.	.
16c\JJ	.	.
16C\LL	4gg\	.
16E\	.	.
16G\	.	.
16c\JJ	.	.
16C\LL	(8.bbn\L	.
16F\	.	.
16G\	.	.
16c\JJ)	32aa\LL	.
.	32gg\JJJ	.
=90	=90	=90
4C\ 4E\ 4G\ 4c\	4ccc\)	.
4.E\ 4.e\	4.eee\	.
8GG#\ 8G#\	8gg#\	.
=91	=91	=91
4AA\ 4A\	4aa\	.
4.C\ 4.c\	4.ccc\	.
8E\	8ee\	.
=92	=92	=92
(8.F\L	(8.ff\L	.
32E\LL	32ee\LL	.
32D\JJJ	32dd\JJJ	.
4Gn\)	4ggn\)	.
4GG/ 4G/	4dd\ 4ff\ 4gg\ 4bbn\	.
=93	=93	=93
4C\ 4c\	4ee\ 4gg\ 4ccc\	.
4CC/ 4C/	4c/	.
4r	4r	.
=94:|!|:	=94:|!|:	=94:|!|:
*>B	*>B	*>B
*	*^	*
4r	(4g/	2.g\	p
(4E\	4cc/	.	.
4C/)	4ee/)	.	.
=95	=95	=95	=95
2.G\	2cc/ (2ee/	2.g\	.
.	4bn/ 4dd/)	.	.
=96	=96	=96	=96
4r	(4gg/	4r	.
(4E\	4cc/	2g\	.
4C/)	4ee/	.	.
=97	=97	=97	=97
2.G\	2cc/ (2ee/)	2.g\	.
.	4bn/ 4dd/)	.	.
*	*v	*v	*
=98	=98	=98
4F\ 4A\ 4d\	(4a/	.
4r	4dd\	.
4r	4ff\	.
=99	=99	=99
4F\ 4A\ 4d\	4ee\	.
4r	4dd\)	.
4r	([4aa\	.
=100	=100	=100
2.G\ 2.d\ 2.f\	4aa\]	.
.	4gg\	.
.	4bn\)	.
=101	=101	=101
4c\ 4e\	(8cc/L	.
.	8g/	.
4r	8e/	.
.	8g/	.
4r	8f/	.
.	(8d/J)	.
=102	=102	=102
4r	8.c/L	f
.	16G/Jk	.
(4E\	4c/	.
4C/)	4e/)	.
=103	=103	=103
2.GG/ 2.G/	(2c/ 2e/	.
.	4Bn/) 4d/	.
=104	=104	=104
*	*^	*
4r	(4g/	4r	.
(4E\	4c/	2G\	.
4C/)	4e/)	.	.
*	*v	*v	*
=105	=105	=105
2.GG/ 2.G/	(2c/ 2e/	.
.	4Bn/) 4d/	.
=106	=106	=106
4FF/ 4AA/ 4D/	(4A/	.
4r	4d/	.
4r	4f/	.
=107	=107	=107
4FF/ 4AA/ 4D/	4e/	.
4r	4d/)	.
4r	([4a/	.
=108	=108	=108
4GG/ 4D/ 4F/	4a/]	.
4r	4g/	.
4r	4Bn/)	.
=109	=109	=109
4C\ 4E\	(8c/L	.
.	8g/J)	p
4e\	8r	.
.	8g/	.
4c\	8r	.
.	8g/	.
=110	=110	=110
4d\	8f/ 8g/L	.
.	8f/ 8g/J	.
4Bn\	8r	.
.	8f/ 8g/	.
4G\	8r	.
.	8f/ 8g/	.
=111	=111	=111
4C/	8e-/ 8g/L	.
.	8e-/ 8g/J	.
4E-\	8r	.
.	8e-/ 8g/	.
4C/	8r	.
.	8e-/ 8g/	.
=112	=112	=112
4D\	8f/ 8g/L	.
.	8f/ 8g/J	.
4BBn/	8r	.
.	8f/ 8g/	.
4GG/	8r	.
.	8f/ 8g/	.
=113	=113	=113
4CC/ 4C/	8e-/ 8g/L	.
.	8e-/ 8g/J	.
4c\	8r	.
.	8e-/ 8g/	.
4C/	8r	.
.	8e-/ 8g/	.
=114	=114	=114
4AAA/ 4AA/	8c/ 8e-/ 8f#/L	.
.	8c/ 8e-/ 8f#/J	.
4A\	8r	.
.	8c/ 8e-/ 8f#/	.
4AA/	8r	.
.	8c/ 8e-/ 8f#/	.
=115	=115	=115
4BBB-/ 4BB-/	8d/ 8g/L	.
.	8d/ 8g/J	.
4B-\	8r	.
.	8d/ 8g/	.
4BB-/	8r	.
.	8d/ 8g/	.
=116	=116	=116
4FFF#/ 4FF#/	8d/ 8a/ 8cc/L	.
.	8d/ 8a/ 8cc/J	.
4F#\	8r	.
.	8d/ 8a/ 8cc/	.
4FF#/	8r	.
.	8d/ 8a/ 8cc/	.
=117	=117	=117
4GGG/ 4GG/	8d/ 8g/ 8b-/L	.
.	8d/ 8g/ 8b-/J	.
4G\	8r	.
.	8d/ 8g/ 8b-/	.
4GG/	8r	.
.	8d/ 8g/ 8b-/	.
=118	=118	=118
4EEn/ 4En/	8g/ 8b-/ 8cc#/L	.
.	8g/ 8b-/ 8cc#/J	.
4e\	8r	.
.	8g/ 8b-/ 8cc#/	.
4E\	8r	.
.	8g/ 8b-/ 8cc#/	.
=119	=119	=119
4FFn/ 4Fn/	8a\ 8dd\L	.
.	8a\ 8dd\J	.
4f\	8r	.
.	8a\ 8dd\	.
4F\	8r	.
.	8a\ 8dd\	.
=120	=120	=120
4CC#/ 4C#/	8a\ 8ee\ 8gg\L	.
.	8a\ 8ee\ 8gg\J	.
4c#\	8r	.
.	8a\ 8ee\ 8gg\	.
4C#/	8r	.
.	8a\ 8ee\ 8gg\	.
=121	=121	=121
4DD/ 4D/	8a\ 8dd\ 8ff\L	.
.	8a\ 8dd\ 8ff\J	.
4d\	8r	.
.	8a\ 8dd\ 8ff\	.
4D\	8r	.
.	8a\ 8dd\ 8ff\	.
=122	=122	=122
4BBB-/ 4BB-/	8dd\ 8gg#\L	.
.	8dd\ 8gg#\J	.
4B-\	8r	.
.	8dd\ 8gg#\	.
4BB-/	8r	.
.	8dd\ 8gg#\	.
=123	=123	=123
4AA/	8cc#\ 8aa\	.
.	8ff\ (8aa\L	.
4r	8ee\ 8ggn\	.
.	8dd\ 8ff\	.
*clefG2	*	*
8r	8cc#\ 8ee\	.
(8g#/	8dd\ 8ff\J	.
=124	=124	=124
4a/)	8cc#\ 8ee\)	.
.	(8f/ 8a/L	.
4r	8e/ 8g/	.
.	8d/ 8f/	.
*clefF4	*	*
8r	8c#/ 8e/	.
(8G#\	8d/ 8f/J	.
=125	=125	=125
8A\L	8c#/ 8e/L	.
8G#\	8d/ 8f/	.
8A\	8c#/ 8e/	.
8G#\	8d/ 8f/	.
8A\	8c#/ 8e/	.
8G#\J	8d/ 8f/J	.
=126	=126	=126
4A\)	4c#/) 4e/	.
4r	4r	.
4r	4r	.
=127	=127	=127
(8A\L	(8cn/ 8e/L	pp
8G#\	8d/ 8f/	.
8A\	8c/ 8e/	.
8G#\	8d/ 8f/	.
8A\	8c/ 8e/	.
8G#\J	8d/ 8f/J	.
=128	=128	=128
4A\)	4c/) 4e/	.
4r	4r	.
4r	4r	.
=129	=129	=129
*^	*^	*
[2.B-/	(8Gn\L	(8e/L	[2.c\	.
.	8A\	8f/	.	.
.	8G\	8e/	.	.
.	8A\	8f/	.	.
.	8G\	8e/	.	.
.	8A\J	8f/J	.	.
=130	=130	=130	=130	=130
4B-/]	4G\)	4e/)	4c\]	.
2r	4r	4r	2r	.
.	4r	4r	.	.
*clefG2	*clefG2	*	*	*
=131	=131	=131	=131	=131
(8g/L	[2.c\	(8bb-/L	[2.ee\	p
8f#/	.	8aa/	.	.
8g/	.	8bb-/	.	.
8f#/	.	8aa/	.	.
8g/	.	8bb-/	.	.
8f#/J	.	8aa/J	.	.
=132	=132	=132	=132	=132
4g/)	4c\]	4bb-/)	4ee\]	.
4r	2r	2r	4r	.
4r	.	.	4r	.
*clefF4	*clefF4	*	*	*
*	*	*v	*v	*
*v	*v	*	*
=133	=133	=133
(8F\L	(2f/	p
8A\	.	.
8c\	.	.
8A\	.	.
8c\	4a/	.
8A\J	.	.
=134	=134	=134
8F\L	2cc\	.
8c\	.	.
8e-\	.	.
8c\	.	.
8e-\	4a/	.
8c\J)	.	.
=135	=135	=135
(8F\L	2b-\	.
8B-\	.	.
8d\	.	.
8B-\	.	.
8d\	4gg\	.
8B-\J	.	.
=136	=136	=136
8F\L	8ff\L	.
8G\	8ee\J)	.
8B-\	4ee\	.
8G\	.	.
8B-\)	4r	.
8G\J	.	.
=137	=137	=137
4F\ 4A\	(4ff\	.
4r	4a/	.
4r	4dd\	.
=138	=138	=138
2.r	4g/	.
.	4.cc\	.
.	8a/)	.
=139	=139	=139
(4F\	[2.f/	.
4AA/	.	.
4D\	.	.
=140	=140	=140
*	*^	*
4GG/	(2.g/	4f\]	.
4.C/	.	8e\L	.
.	.	8d\J	.
.	.	4e\)	.
8AA/)	.	.	.
=141	=141	=141	=141
(4FF/	(4a/	[2.f\	.
4D\	4b-/	.	.
4BB-/)	4dd/)	.	.
=142	=142	=142	=142
4AA/	8dd/L	4f\]	.
.	(8cc/	.	.
4r	8b-/	4r	.
.	8a/	.	.
4D\	8g/	4r	.
.	8f/J	.	.
*	*v	*v	*
=143	=143	=143
4BB-/	4g/	.
4r	4b-\)	.
4C/	4B-/ 4e/	.
=144	=144	=144
4FF/	4A/ 4f/	.
4r	4r	.
*clefG2	*	*
(8.a/ 8.cc/L	(8.ccc\L	p
16g/ 16b-/Jk	16bb-\Jk	.
=145	=145	=145
4f/) 4a/	4aa\)	.
4f/ 4a/	4aa\	.
(8.f/ 8.a/L	(8.aa\L	.
16c/ 16g/Jk	16gg\Jk	.
=146	=146	=146
4A/) 4f/	4ff\)	.
4A/ 4f/	4ff\	.
(4A/ 4f/	(4ff\	.
=147	=147	=147
4c/) 4g/	4ee\ 4gg\)	.
4c'/ 4g'/	4ee'\ 4gg'\	.
4c'/ 4g'/	4ee'\ 4gg'\	.
=148	=148	=148
(4c/ 4g/	4ee\ (4gg\	.
4f/) 4a/	4ff\ 4aa\)	.
(8.a/ 8.cc/L	(16ccc\LL	.
.	16ddd\	.
.	16ccc\	.
16g/ 16b-/Jk	16bb-\JJ	.
=149	=149	=149
4f/) 4a/	4aa\)	.
4f/ 4a/	4aa\	.
(8.f/ 8.a/L	(16aa\LL	.
.	16bb-\	.
.	16aa\	.
16c/ 16g/Jk	16gg\JJ	.
=150	=150	=150
4A/) 4f/	4ff\)	.
4A/ 4f/	4ff\	.
4A/ 4f/	4ff\	.
=151	=151	=151
4c/ 4g/	(4gg\	.
4r	4bb-\)	.
(4c/ 4g/	4b-\ (4ee\	.
=152	=152	=152
4f/)	4a\ 4ff\)	.
4r	4r	.
(4c/ 4e/ 4b-/	(4ccc\	.
=153	=153	=153
4f/) 4a/	4ff\)	.
4r	4r	.
*clefF4	*	*
4C\ 4E\ (4B-\	(4cc\	.
=154	=154	=154
4F\ 4A\)	4f/)	.
4r	4r	.
(4CC#/ 4C#/	(4c#/	f
=155	=155	=155
8DD/) 8D/	4.d/)	.
(8F\L	.	.
8A\	.	.
8F\	(16f/LL	.
.	16a/JJ	.
8A\	8dd\L	.
8F\J	16a\L	.
.	16dd\JJ	.
=156	=156	=156
8D\L	8ff\L	.
8F\	16dd\L	.
.	16ff\JJ	.
8A\	8aa'\L)	.
8F\	(8aa\	.
8A\)	8ff\	.
8F\J	8dd\J)	.
=157	=157	=157
.	(32cc#Q/LLL	.
.	32eeQ/	.
.	32ggQ/JJJ	.
4EE/ 4E/	4.bb-\)	.
4E\ 4G\ 4B-\ 4c#\	.	.
.	(16aa\LL	.
.	16gg\JJ	.
4r	16ff\LL	.
.	16ee\	.
.	16dd\	.
.	16cc#\JJ	.
=158	=158	=158
4EE/ 4E/	4.bb-\)	.
4E\ 4G\ 4B-\ 4c#\	.	.
.	(16aa\LL	.
.	16gg\JJ	.
4r	16ff\LL	.
.	16ee\	.
.	16dd\	.
.	16cc#\JJ)	.
=159	=159	=159
(8F\L	4.dd\	.
8A\	.	.
8d\	.	.
8A\	(16f/LL	.
.	16a/JJ	.
8d\	8dd\L	.
8A\J	16a\L	.
.	16dd\JJ	.
=160	=160	=160
8F\L	8ff\L	.
8A\	16dd\L	.
.	16ff\JJ	.
8d\	8aa'\L)	.
8A\	(8aa\	.
8d\	8ff\	.
8A\J)	8dd\J)	.
=161	=161	=161
4DD/ 4D/	4.bn\ 4.dd\ 4.ff\ 4.aa-\	.
4D\ 4F\ 4A-\ 4Bn\	.	.
.	(16gg\LL	.
.	16ff\JJ	.
4r	16ee-\LL	.
.	16dd\	.
.	16cc\	.
.	16b\JJ	.
=162	=162	=162
4DD/ 4D/	4.aa-\)	.
4D\ 4F\ 4A-\ 4Bn\	.	.
.	(16gg\LL	.
.	16ff\JJ	.
4r	16ee-\LL	.
.	16dd\	.
.	16cc\	.
.	16bn\JJ)	.
=163	=163	=163
(8E-\L	4.cc\	.
8G\	.	.
8c\	.	.
8G\	(16e-/LL	.
.	16g/JJ	.
8c\	8cc/L	.
8G\J	16g/L	.
.	16cc/JJ	.
=164	=164	=164
8E-\L	8ee-\L	.
8G\	16cc\L	.
.	16ee-\JJ	.
8c\	8gg'\L)	.
8G\	(8gg\	.
8c\	8ee-\	.
8G\J)	8cc\J)	.
=165	=165	=165
4EE-/	4.an\ 4.cc\ 4.ee-\ 4.gg-\	.
4E-\ 4G-\ 4An\ 4c\	.	.
.	(16ff\LL	.
.	16ee-\JJ	.
4r	16dd-\LL	.
.	16cc\	.
.	16b-\	.
.	16a\JJ	.
=166	=166	=166
4EE-/	4.gg-\)	.
4E-\ 4G-\ 4A\ 4c\	.	.
.	(16ff\LL	.
.	16ee-\JJ	.
4r	16dd-\LL	.
.	16cc\	.
.	16b-\	.
.	16a\JJ)	.
=167	=167	=167
(8D-\L	([4b-\	.
8F\	.	.
8B-\	16b-/LL]	.
.	16f/	.
8F\	16b-/	.
.	16f/JJ	.
8B-\	16dd-\LL	.
.	16b-\	.
8F\J	16dd-\	.
.	16b-\JJ	.
=168	=168	=168
8D-\L	16ff\LL	.
.	16dd-\	.
8F\	16ff\	.
.	16dd-\JJ	.
8B-\	4bb-\)	.
8F\	.	.
8B-\	4r	.
(8F\J)	.	.
=169	=169	=169
8C\L	([4an/	.
8F\	.	.
8An\	16a/LL]	.
.	16f/	.
8F\	16a/	.
.	16f/JJ	.
8A\	16cc/LL	.
.	16a/	.
8F\J	16cc/	.
.	16a/JJ	.
=170	=170	=170
8C\L	16ff\LL	.
.	16cc\	.
8F\	16ff\	.
.	16cc\JJ	.
8A\	4aa\)	.
8F\	.	.
8A\	4r	.
8F\J)	.	.
=171	=171	=171
(8BBn\L	([4a-/	.
8F\	.	.
8A-\	16a-/LL]	.
.	16f/	.
8F\	16a-/	.
.	16f/JJ	.
8A-\	16ddn\LL	.
.	16a-\	.
8F\J	16dd\	.
.	16a-\JJ	.
=172	=172	=172
8BBn\L	16ff\LL	.
.	16dd\	.
8F\	16ff\	.
.	16dd\JJ	.
8A-\	4aa-\	.
8F\	.	.
8A-\	4ff\)	.
8F\J)	.	.
=173	=173	=173
.	32ccQ/LLL	.
.	32eenQ/	.
.	32ggQ/JJJ	.
8C\L	(2ccc\	.
8En\	.	.
(8G\	.	.
8c\	.	.
8F\	16bb-\LL	.
.	16aa-\	.
8A-\J	16gg\	.
.	16ff\JJ	.
=174	=174	=174
8C\L	2ccc\	.
8E\	.	.
8G\	.	.
8c\	.	.
8F\	16bb-\LL	.
.	16aa-\	.
8A-\J)	16gg\	.
.	16ff\JJ	.
=175	=175	=175
4.c\	4.cc\)	.
(16d-\LL	(16dd-\LL	.
16c\JJ	16cc\JJ	.
16B-\LL	16b-/LL	.
16A-\	16a-/	.
16G\	16g/	.
16F\JJ	16f/JJ	.
=176	=176	=176
4c'\)	4cc'\)	.
4CC'/ 4C'/	4c'/	.
4r	4r	.
=177	=177	=177
32FFQ/LLL	32cQ/	.
32CQ/JJJ	.	.
4F\	8an'/	p
.	8r	.
4r	8a'/	.
.	8r	.
4r	8a'/	.
.	8r	.
=178	=178	=178
32CQ/LLL	32eQ/	.
32GQ/JJJ	.	.
4B-\	(4.cc\	.
4r	.	.
.	8b-\)	.
4r	4g/	.
=179	=179	=179
*	*^	*
4FF/	(8g/L	4A\	.
.	8f/J	.	.
4AA/	(4.c/ (4.f/)	2r	.
4C/	.	.	.
.	8e/) 8g/)	.	.
*	*v	*v	*
=180	=180	=180
4F\	(2e/ (2g/	.
4FF/	.	.
4r	4f/) 4a/)	.
=181	=181	=181
(4D\	4.b-\	.
4F\ 4B-\)	.	.
.	32ccQ/LLL	.
.	32b-Q/	.
.	32aQ/JJJ	.
.	(8b-\L	.
4r	8cc\	.
.	8dd\J)	.
=182	=182	=182
(4E\	(8dd\L	.
.	8cc\	.
4G\ 4c\)	8bn\	.
.	8cc\	.
4r	8b-\	.
.	8g\J	.
=183	=183	=183
4F\	8g#/L	.
.	8a/	.
4D\ 4F\	8b-/	.
.	8a/	.
4BB-\ 4G\	8cc/	.
.	8b-/J	.
=184	=184	=184
4C\ 4E\	8a/L	.
.	8gn/	.
4r	8f/	.
.	8e/	.
4r	8d/	.
.	8c/J)	.
=185	=185	=185
(12F\L	8g#\ (8gg#\L	.
12A\	.	.
.	8a\ 8aa\)	.
12c\J	.	.
12F\L	8g#\ (8gg#\	.
12A\	.	.
.	8a\ 8aa\)	.
12c\J	.	.
12F\L	8g#\ (8gg#\	.
12A\	.	.
.	8a\ 8aa\J)	.
12c\J	.	.
=186	=186	=186
12E\L	8bn\ (8bbn\L	.
12G\	.	.
.	8cc\ 8ccc\)	.
12c\J	.	.
12E\L	8b\ (8bb\	.
12G\	.	.
.	8cc\ 8ccc\)	.
12c\J	.	.
12E\L	(8bb-\	.
12B-\	.	.
.	8ggn\J)	.
12c\J	.	.
=187	=187	=187
*	*^	*
4F\ 4A\)	4r	(8gg\L	.
.	.	8ff\J	.
4A\	(8gg/L)	4cc\	.
.	8ff/J	.	.
4c\	(8aa/L)	4ee\	.
.	8gg/J	.	.
=188	=188	=188	=188
4f\	(4.gg/)	(2ee\	.
4c\	.	.	.
.	8gg#/	.	.
4F\	4aa/)	4ff\)	.
*clefG2	*	*	*
*	*v	*v	*
=189	=189	=189
(8d/L	4.bb-\	f
8f/	.	.
8b-/	.	.
.	32cccQ/LLL	.
.	32bb-Q/	.
.	32aaQ/JJJ	.
8f/	(8bb-\L	.
8d/	8ccc\	.
8f/J	8ddd\J)	.
=190	=190	=190
8e/L	(8ddd\L	.
8g/	8ccc\	.
8cc/	8bbn\	.
8g/	8ccc\	.
8e/	8bb-\	.
8g/J)	8gg\J	.
=191	=191	=191
4f/	8gg#\L	.
.	8aa\	.
4B-/ 4gn/	8ccc\	.
.	8bb-\	.
4c/ 4b-/	8ggn\	.
.	8ee\J)	.
=192	=192	=192
4f/ 4a/	(8ff\L	.
.	8cc\J)	p
4a/	8r	.
.	8cc\	.
4f/	8r	.
.	8cc\	.
=193	=193	=193
4g/	8b-\ 8cc\L	.
.	8b-\ 8cc\J	.
4e/	8r	.
.	8b-\ 8cc\	.
4c/	8r	.
.	8b-\ 8cc\	.
*clefF4	*	*
=194	=194	=194
4F\	8a-\ 8cc\L	.
.	8a-\ 8cc\J	.
4A-\	8r	.
.	8a-\ 8cc\	.
4F\	8r	.
.	8a-\ 8cc\	.
=195	=195	=195
4G\	8b-\ 8cc\L	.
.	8b-\ 8cc\J	.
4E\	8r	.
.	8b-\ 8cc\	.
4C/	8r	.
.	8b-\ 8cc\	.
=196	=196	=196
4FF/ 4F/	8a-\ 8cc\L	.
.	8a-\ 8cc\J	.
4A-\	8r	.
.	8a-\ 8cc\	.
4c\	8r	.
.	8a-\ 8cc\	.
=197	=197	=197
4BB-\ 4B-\	8a-\ 8dd-\L	.
.	8a-\ 8dd-\J	.
4d-\	8r	.
.	8a-\ 8dd-\	.
4f\	8r	.
.	8a-\ 8dd-\	.
=198	=198	=198
4EE-/ 4E-/	8g\ 8dd-\L	.
.	8g\ 8dd-\J	.
4G\	8r	.
.	8g\ 8dd-\	.
4B-\	8r	.
.	8g\ 8dd-\	.
=199	=199	=199
4AA-\ 4A-\	8g/ 8cc/L	.
.	8g/ 8cc/J	.
4c\	8r	.
.	8g/ 8cc/	.
4e-\	8r	.
.	8g/ 8cc/	.
=200	=200	=200
4DD-/ 4D-/	8f/ 8cc/L	.
.	8f/ 8cc/J	.
4d-\	8r	.
.	8f/ 8cc/	.
4GG/ 4G/	8f/ 8b-/L	.
.	8f/ 8b-/J	.
=201	=201	=201
4g\	8r	.
.	8f/ 8b-/	.
4CC/ 4C/	8en/ 8b-/L	.
.	8e/ 8b-/J	.
4c\	8r	.
.	8e/ 8b-/	.
=202	=202	=202
(4d-\	8r	.
.	8f/ 8a-/	.
4c\	8r	.
.	8f/ 8a-/	.
4Bn\	8r	.
.	8f/ 8a-/	.
=203	=203	=203
4c\)	8e/ 8g/L	.
.	(8a-/ 8cc/	.
4r	8g/ 8b-/	.
.	8f/ 8a-/	.
8r	8e/ 8g/	.
(8Bn\	8f/ 8a-/J	.
=204	=204	=204
4c\)	8e/) 8g/L	.
.	(8a-/ 8cc/	.
4r	8g/ 8b-/	.
.	8f/ 8a-/	.
8r	8e/ 8g/	.
(8Bn\	8f/) 8a-/J	.
=205	=205	=205
8c\L	8e/ 8g/L	.
8Bn\	(8f/ 8a-/	.
8c\	8e/ 8g/	.
8B\	8f/ 8a-/	.
8c\	8e/ 8g/	.
8B\J	8f/ 8a-/J	.
=206	=206	=206
4c\)	8e/ 8g/L	.
.	8d#/ 8f#/	.
4r	8e/ 8g/	.
.	8f#/ 8an/	.
4r	8g/ 8b-/	.
.	8a/) 8cc/J	.
=207	=207	=207
*	*^	*
4B-\	4b-/ 4dd/	4r	.
4B-\	4b-/ 4dd/	4fn\	.
4B-\	4b-/ 4dd/	4f\	.
=208	=208	=208	=208
(2B-\	2b-/ (2dd/	2.f\	.
4F\)	4a/ 4cc/)	.	.
=209	=209	=209	=209
4C/	(16cc/LK	4e\ 4g\	.
.	8.b-/J	.	.
4C/	4g/ 4b-/)	4e\	.
4C/	4g/ 4b-/	4e\	.
*	*v	*v	*
=210	=210	=210
(2C/	(2e/ 2g/ 2b-/	.
4D\)	4f/) 4a/	.
=211	=211	=211
4BB-/	(8a/ 8cc/L	.
.	8g/) 8b-/J	.
4C/	(4f/ 4a/	.
4C/	4e/) 4g/	.
=212	=212	=212
4F\	8f/ 8a/	.
.	8ff'\L	.
4r	8gg'\	.
.	8aa'\	.
4r	8bb-'\	.
.	8ccc'\J	.
*clefG2	*	*
=213	=213	=213
4f/ 4b-/	4ddd\	.
4f/ 4b-/	4ddd\	.
4f/ 4b-/	4ddd\	.
=214	=214	=214
*^	*	*
(2b-/	2.f\	(4.ddd\	.
.	.	16eee\LL	.
.	.	16ddd\JJ	.
4a/)	.	4ccc\)	.
=215	=215	=215	=215
*	*	*^	*
4g/	4c\	(16ccc/LK	4ee\	.
.	.	8.bb-/J)	.	.
4g/	4c\	4bb-/	4ee\	.
4g/	4c\	4bb-/	4ee\	.
=216	=216	=216	=216	=216
(2g/	(2c\	(2bb-/	(2ee\	.
4f/)	4d\)	4aa/)	4ff\)	.
*clefF4	*clefF4	*	*	*
*	*	*v	*v	*
*v	*v	*	*
=217	=217	=217
(4B-\	8aa\ (8ccc\L	.
.	8gg\ 8bb-\J)	.
4c\	4ff\ 4aa\	.
4B-\)	4ee\ 4gg\	.
=218	=218	=218
8AA\ 8A\	8aa\ 8ccc\L	.
8r	8aa\ 8ccc\J	.
8c#\	8r	.
8r	8gg\ 8bb-\	.
8d\	8r	.
8r	8ff\ 8aa\	.
=219	=219	=219
8B-\	8r	.
8r	8b-\ 8gg\	.
8cn\	8r	.
8r	8a\ 8ff\	.
8B-\	8r	.
8r	8g\ 8ee\	.
=220	=220	=220
8AA\ 8A\	16r	.
.	(16aa\LL	f
8r	16ccc\	.
.	(16aa\JJ)	.
8C#\ 8c#\	16r	.
.	16gg\LL	.
8r	16bb-\	.
.	(16gg\JJ)	.
8D\ 8d\	16r	.
.	16ff\LL	.
8r	16aa\	.
.	16ff\JJ)	.
=221	=221	=221
8BB-\ 8B-\	16r	.
.	(16b-\LL	.
8r	16gg\	.
.	16b-\JJ)	.
8Cn\ 8cn\	16r	.
.	(16a\LL	.
8r	16ff\	.
.	16a\JJ)	.
8CC/ 8C/	16r	.
.	(16g\LL	.
8r	16ee\	.
.	16g\JJ	.
=222	=222	=222
(16FF/LL	4a\ 4cc\ 4ff\)	.
16AA/	.	.
16C/	.	.
16F/JJ	.	.
16FF/LL	4r	.
16AA/	.	.
16C/	.	.
16F/JJ	.	.
16FF/LL	(8.a/L	.
16AA/	.	.
16C/	.	.
16F/JJ	32g/LL	.
.	32f/JJJ	.
=223	=223	=223
16FF/LL	2cc\)	.
16AA/	.	.
16C/	.	.
16F/JJ	.	.
16FF/LL	.	.
16AA/	.	.
16C/	.	.
16F/JJ	.	.
16FF/LL	(8.ee\L	.
16BB-/	.	.
16C/	.	.
16F/JJ	32dd\LL	.
.	32cc\JJJ	.
=224	=224	=224
16FF/LL	2ff\)	.
16AA/	.	.
16C/	.	.
16F/JJ	.	.
16FF/LL	.	.
16AA/	.	.
16C/	.	.
16F/JJ	.	.
16FF/LL	(8.aa\L	.
16AA/	.	.
16C/	.	.
16F/JJ	32gg\LL	.
.	32ff\JJJ	.
=225	=225	=225
16FF/LL	4ccc'\)	.
16AA/	.	.
16C/	.	.
16F/JJ	.	.
16FF/LL	4ccc'\	.
16AA/	.	.
16C/	.	.
16F/JJ	.	.
16FF/LL	(8.eee\L	.
16BB-/	.	.
16C/	.	.
16F/JJ)	32ddd\LL	.
.	32ccc\JJJ	.
=226	=226	=226
4FF/ 4AA/ 4C/ 4F/	4fff\)	.
4.AA\ 4.A\	4.aa\	.
8C#\ 8c#\	8cc#\	.
=227	=227	=227
4D\ 4d\	4dd\	.
4.F\ 4.f\	4.ff\	.
8A\	8a/	.
=228	=228	=228
(8.B-\L	(8.b-/L	.
32A\LL	32a/LL	.
32G\JJJ	32g/JJJ	.
4cn\)	4ccn\)	.
4C\ 4c\	4g\ 4cc\ 4ee\	.
=229	=229	=229
4F\ 4f\	4a\ 4cc\ 4ff\	.
4FF/ 4F/	4f/	.
4r	4r	.
==:|!	==:|!	==:|!
*-	*-	*-
!!!SMS: Alte Mozart-Ausgabe, Band 20, Breitkopf &amp; H&auml;rtel 1877-1883.
!!!ONB: Stich und Druck von Breitkopf &amp; H&auml;rtel in Leipzig
!!!ONB: Ausgegeben 1878
!!!ENC: Craig Stuart Sapp
!!!END: 2009/10/12/
!!!EEV: 2011/06/30/ (BA fixed alignment problem in measure 51)
!!!title: @{OTL}, K 332 (300k), @{OMV}
!!!hum2abc: --no-tempo -s 0.65 --spacing 2.0 -p "%gracespace  0 6.0 12.0"
